X:1
T: The Gaberlunzie
C:
R:Reel
Q: 232
K:Dm
M:4/4
L:1/8
|:A|d^c de f2 ed|^c=B cd eA Ac|d^c de fe fg|ab ag fd dA|
d^c de f2 ed|^c=B cd eA Ac|d^c de fe fg|ab ag fd de|
fe fg a2 gf|ed ef gc ce|fe fg ab ag|fd e^c dD De|
fe fg a2 gf|ed ef gc ce|d^c de fe fg|ab ag fd d:|
